learning-site/svg (79).svg

<svg xmlns="http://www.w3.org/2000/svg" xmlns:xlink="http://www.w3.org/1999/xlink" viewBox="0 0 100 118" version="1.1"><!-- Generator: Sketch 51.3 (57544) - http://www.bohemiancoding.com/sketch --><title>create-a-powerapp</title><desc>Created with Sketch.</desc><defs><filter x="-1.5%" y="-1.6%" width="103.0%" height="106.6%" filterUnits="objectBoundingBox" id="filter-1"><feOffset dx="0" dy="2" in="SourceAlpha" result="shadowOffsetOuter1"></feOffset><feColorMatrix values="0 0 0 0 0   0 0 0 0 0   0 0 0 0 0  0 0 0 0.101505888 0" type="matrix" in="shadowOffsetOuter1" result="shadowMatrixOuter1"></feColorMatrix><feMerge><feMergeNode in="shadowMatrixOuter1"></feMergeNode><feMergeNode in="SourceGraphic"></feMergeNode></feMerge></filter><path d="M25.9657611,21.5103359 L29.3184644,18.1579837 C30.2343583,17.2421856 31.7192381,17.2422634 32.6350362,18.1581573 L35.9873884,21.5108606 C36.9031864,22.4267546 36.9031087,23.9116343 35.9872147,24.8274324 L32.6345115,28.1797846 C31.7186175,29.0955826 30.2337377,29.0955049 29.3179396,28.1796109 L25.9655875,24.8269077 C25.0497894,23.9110137 25.0498672,22.4261339 25.9657611,21.5103359 Z" id="path-2"></path><filter x="-8.8%" y="-8.8%" width="117.6%" height="117.6%" filterUnits="objectBoundingBox" id="filter-3"><feOffset dx="-2" dy="-2" in="SourceAlpha" result="shadowOffsetInner1"></feOffset><feComposite in="shadowOffsetInner1" in2="SourceAlpha" operator="arithmetic" k2="-1" k3="1" result="shadowInnerInner1"></feComposite><feColorMatrix values="0 0 0 0 0   0 0 0 0 0   0 0 0 0 0  0 0 0 0.186056386 0" type="matrix" in="shadowInnerInner1"></feColorMatrix></filter><path d="M34.301478,13.161852 L37.6541812,9.80949988 C38.5700752,8.89370181 40.054955,8.89377956 40.970753,9.80967353 L44.3231052,13.1623768 C45.2389033,14.0782707 45.2388255,15.5631505 44.3229315,16.4789486 L40.9702283,19.8313008 C40.0543343,20.7470988 38.5694545,20.7470211 37.6536565,19.8311271 L34.3013043,16.4784239 C33.3855062,15.5625299 33.385584,14.0776501 34.301478,13.161852 Z" id="path-4"></path><filter x="-8.8%" y="-8.8%" width="117.6%" height="117.6%" filterUnits="objectBoundingBox" id="filter-5"><feOffset dx="-2" dy="-2" in="SourceAlpha" result="shadowOffsetInner1"></feOffset><feComposite in="shadowOffsetInner1" in2="SourceAlpha" operator="arithmetic" k2="-1" k3="1" result="shadowInnerInner1"></feComposite><feColorMatrix values="0 0 0 0 0   0 0 0 0 0   0 0 0 0 0  0 0 0 0.186056386 0" type="matrix" in="shadowInnerInner1"></feColorMatrix></filter><path d="M32.3087744,11.8173501 L36.3100873,7.81603724 C37.0447993,7.07850308 37.0447993,5.88571448 36.3100873,5.14818032 L32.3087744,1.14686747 C31.5712403,0.412155521 30.3784517,0.412155521 29.6409175,1.14686747 L25.6396047,5.14818032 C24.9048927,5.88571448 24.9048927,7.07850308 25.6396047,7.81603724 L29.6409175,11.8173501 C30.3784517,12.552062 31.5712403,12.552062 32.3087744,11.8173501" id="path-6"></path><filter x="-8.5%" y="-8.5%" width="117.0%" height="117.0%" filterUnits="objectBoundingBox" id="filter-7"><feOffset dx="-2" dy="-2" in="SourceAlpha" result="shadowOffsetInner1"></feOffset><feComposite in="shadowOffsetInner1" in2="SourceAlpha" operator="arithmetic" k2="-1" k3="1" result="shadowInnerInner1"></feComposite><feColorMatrix values="0 0 0 0 0   0 0 0 0 0   0 0 0 0 0  0 0 0 0.186056386 0" type="matrix" in="shadowInnerInner1"></feColorMatrix></filter></defs><g id="Badges-FINAL" stroke="none" stroke-width="1" fill="none" fill-rule="evenodd"><g id="Create-a-PowerApp" transform="translate(-577.000000, -119.000000)"><g id="create-a-powerapp" transform="translate(577.000000, 119.000000)"><path d="M44.7425,3.49663266 C46.3745,2.49887755 48.1865,2 50,2 C51.8135,2 53.627,2.49887755 55.256,3.49663266 L92.591,26.3316189 C95.933,28.3773408 98,32.2031485 98,36.3529027 L98,81.6470973 C98,85.7952317 95.933,89.6242789 92.591,91.6683811 L55.256,114.504987 C53.627,115.501122 51.8135,116 50,116 C48.1865,116 46.3745,115.501122 44.7425,114.504987 L7.409,91.6683811 C4.0655,89.6242789 2,85.7952317 2,81.6470973 L2,36.3529027 C2,32.2031485 4.0655,28.3773408 7.409,26.3316189 L44.7425,3.49663266 Z" id="Trophy-1" fill="#965596"></path><g id="Colors" filter="url(#filter-1)" transform="translate(16.285592, 28.681805)"><path d="M33.146332,60.1701521 C29.8648451,60.1701521 26.6185763,59.7454647 23.4966061,58.9168064 C22.877184,58.7510747 22.368595,58.3160291 22.1189617,57.7256101 C21.8693284,57.135191 21.9076538,56.4619062 22.2235798,55.9025618 C23.2707967,54.0380806 23.8239261,51.9353602 23.8239261,49.8119233 C23.8239261,42.9547759 18.2480916,37.3820488 11.3940516,37.3820488 C8.83142584,37.3820488 6.36409575,38.1651309 4.25826784,39.6401427 C3.71342501,40.0233971 3.01631621,40.1269794 2.38964337,39.9094566 C1.75986307,39.6919338 1.27199049,39.182309 1.0824349,38.5442421 C0.364609652,36.1452763 0,33.6624089 0,31.1671115 C0,15.1740064 14.8692374,2.16407104 33.146332,2.16407104 C51.4223908,2.16407104 66.292664,15.1740064 66.292664,31.1671115 C66.292664,47.1602167 51.4223908,60.1701521 33.146332,60.1701521" id="Fill-219" fill="#EFB252"></path><path d="M33.146332,58.0985063 C29.8648451,58.0985063 26.6185763,57.6738189 23.4966061,56.8451606 C22.877184,56.679429 22.368595,56.2443834 22.1189617,55.6539643 C21.8693284,55.0635453 21.9076538,54.3902604 22.2235798,53.8309161 C23.2707967,51.9664349 23.8239261,49.8637144 23.8239261,47.7402776 C23.8239261,40.8831301 18.2480916,35.310403 11.3940516,35.310403 C8.83142584,35.310403 6.36409575,36.0934851 4.25826784,37.573676 C3.71342501,37.9569305 3.01631621,38.0542978 2.38964337,37.8357392 C1.75986307,37.6171806 1.27199049,37.1106632 1.0824349,36.4725963 C0.364609652,34.0736305 0,31.5907631 0,29.0954658 C0,13.1023606 14.8692374,0.0924252861 33.146332,0.0924252861 C51.4223908,0.0924252861 66.292664,13.1023606 66.292664,29.0954658 C66.292664,45.088571 51.4223908,58.0985063 33.146332,58.0985063" id="Fill-220" fill="#F7CB64"></path><g id="PowerApp" transform="translate(11.812136, 6.510658)" fill-rule="nonzero"><g id="Rectangle-path"><use fill="#742774" xlink:href="#path-2"></use><use fill="black" fill-opacity="1" filter="url(#filter-3)" xlink:href="#path-2"></use></g><g id="Rectangle-path"><use fill="#742774" xlink:href="#path-4"></use><use fill="black" fill-opacity="1" filter="url(#filter-5)" xlink:href="#path-4"></use></g><path d="M27.988982,13.4844063 L26.6867125,12.1830818 L15.6504982,1.14781251 C14.912964,0.413100564 13.7201754,0.413100564 12.9826413,1.14781251 L1.94642692,12.1830818 L0.645102448,13.4844063 C-0.089609498,14.2219404 -0.089609498,15.414729 0.645102448,16.1522632 L1.94642692,17.4545327 L12.9883115,28.4841318 C13.7258457,29.2188437 14.9186343,29.2188437 15.6561684,28.4841318 L26.6914377,17.4535877 L27.9937073,16.1513182 C28.7284192,15.413784 28.7284192,14.2209954 27.9937073,13.4834612 M12.9883115,20.152631 L10.0085904,17.1738549 L8.98605362,16.1513182 C8.25134168,15.413784 8.25134168,14.2209954 8.98605362,13.4834612 L12.9873665,9.48214838 C13.7249006,8.74743644 14.9176892,8.74743644 15.6552234,9.48214838 L19.6565363,13.4834612 C20.3912482,14.2209954 20.3912482,15.413784 19.6565363,16.1513182 L18.6339995,17.1738549 L15.6552234,20.152631 C14.9176892,20.887343 13.7249006,20.887343 12.9873665,20.152631" id="Shape" fill="#742774"></path><g id="Shape"><use fill="#742774" xlink:href="#path-6"></use><use fill="black" fill-opacity="1" filter="url(#filter-7)" xlink:href="#path-6"></use></g></g></g><g id="PowerApps-Hex-Border" stroke="#742774" stroke-width="4"><path d="M45.5620172,3.25834249 L6.67338401,26.8942953 C3.79673288,28.6432593 2,31.9508238 2,35.5582677 L2,82.4417323 C2,86.0486597 3.79764663,89.3586805 6.67318764,91.1055853 L45.560618,114.742485 C46.9289662,115.572418 48.4546283,116 50,116 C51.5458817,116 53.0723633,115.572188 54.4362178,114.743457 L93.3268764,91.1055464 C96.2016145,89.3583456 98,86.0476286 98,82.4417323 L98,35.5582677 C98,31.9518547 96.202529,28.6435953 93.3268966,26.8944659 L54.4351916,3.25759524 C53.0721095,2.42798656 51.5462432,2 50,2 C48.4543284,2 46.9293388,2.42772325 45.5620146,3.25834407 Z M45.5620146,3.25834407 C45.5619597,3.25837737 45.5619049,3.25841067 45.5618501,3.25844398 L45.5621963,3.25823359 L45.5620172,3.25834249 Z" id="Azure-Hex-Border"></path></g></g></g></g></svg>

<svg xmlns="http://www.w3.org/2000/svg" xmlns:xlink="http://www.w3.org/1999/xlink" viewBox="0 0 100 118"><defs><filter x="-1.5%" y="-1.6%" width="103%" height="106.6%" filterUnits="objectBoundingBox" id="a"><feOffset dy="2" in="SourceAlpha" result="shadowOffsetOuter1"/><feColorMatrix values="0 0 0 0 0 0 0 0 0 0 0 0 0 0 0 0 0 0 0.101505888 0" in="shadowOffsetOuter1" result="shadowMatrixOuter1"/><feMerge><feMergeNode in="shadowMatrixOuter1"/><feMergeNode in="SourceGraphic"/></feMerge></filter><path d="M25.966 21.51l3.352-3.352a2.345 2.345 0 0 1 3.317 0l3.352 3.353c.916.916.916 2.4 0 3.316l-3.352 3.353c-.916.916-2.401.916-3.317 0l-3.352-3.353a2.345 2.345 0 0 1 0-3.317z" id="b"/><filter x="-8.8%" y="-8.8%" width="117.6%" height="117.6%" filterUnits="objectBoundingBox" id="c"><feOffset dx="-2" dy="-2" in="SourceAlpha" result="shadowOffsetInner1"/><feComposite in="shadowOffsetInner1" in2="SourceAlpha" operator="arithmetic" k2="-1" k3="1" result="shadowInnerInner1"/><feColorMatrix values="0 0 0 0 0 0 0 0 0 0 0 0 0 0 0 0 0 0 0.186056386 0" in="shadowInnerInner1"/></filter><path d="M34.301 13.162l3.353-3.353a2.345 2.345 0 0 1 3.317 0l3.352 3.353c.916.916.916 2.401 0 3.317L40.97 19.83c-.916.916-2.4.916-3.316 0L34.3 16.478a2.345 2.345 0 0 1 0-3.316z" id="d"/><filter x="-8.8%" y="-8.8%" width="117.6%" height="117.6%" filterUnits="objectBoundingBox" id="e"><feOffset dx="-2" dy="-2" in="SourceAlpha" result="shadowOffsetInner1"/><feComposite in="shadowOffsetInner1" in2="SourceAlpha" operator="arithmetic" k2="-1" k3="1" result="shadowInnerInner1"/><feColorMatrix values="0 0 0 0 0 0 0 0 0 0 0 0 0 0 0 0 0 0 0.186056386 0" in="shadowInnerInner1"/></filter><path d="M32.309 11.817l4.001-4.001a1.89 1.89 0 0 0 0-2.668L32.31 1.147a1.89 1.89 0 0 0-2.668 0L25.64 5.148a1.89 1.89 0 0 0 0 2.668l4 4.001a1.89 1.89 0 0 0 2.669 0" id="f"/><filter x="-8.5%" y="-8.5%" width="117%" height="117%" filterUnits="objectBoundingBox" id="g"><feOffset dx="-2" dy="-2" in="SourceAlpha" result="shadowOffsetInner1"/><feComposite in="shadowOffsetInner1" in2="SourceAlpha" operator="arithmetic" k2="-1" k3="1" result="shadowInnerInner1"/><feColorMatrix values="0 0 0 0 0 0 0 0 0 0 0 0 0 0 0 0 0 0 0.186056386 0" in="shadowInnerInner1"/></filter></defs><g fill="none" fill-rule="evenodd"><path d="M44.742 3.497A10.056 10.056 0 0 1 50 2c1.813 0 3.627.499 5.256 1.497l37.335 22.835C95.933 28.377 98 32.203 98 36.352v45.295c0 4.148-2.067 7.977-5.409 10.021l-37.335 22.837A10.056 10.056 0 0 1 50 116c-1.813 0-3.626-.499-5.258-1.495L7.41 91.668C4.066 89.624 2 85.795 2 81.648V36.352c0-4.15 2.066-7.976 5.409-10.021L44.743 3.497z" fill="#965596"/><g filter="url(#a)" transform="translate(16.286 28.682)"><path d="M33.146 60.17a37.63 37.63 0 0 1-9.65-1.253 2.069 2.069 0 0 1-1.377-1.191 2.069 2.069 0 0 1 .105-1.823 12.457 12.457 0 0 0 1.6-6.091c0-6.857-5.576-12.43-12.43-12.43-2.563 0-5.03.783-7.136 2.258a2.073 2.073 0 0 1-1.868.27 2.07 2.07 0 0 1-1.308-1.366A25.724 25.724 0 0 1 0 31.167C0 15.174 14.87 2.164 33.146 2.164c18.276 0 33.147 13.01 33.147 29.003S51.423 60.17 33.146 60.17" fill="#EFB252"/><path d="M33.146 58.099a37.63 37.63 0 0 1-9.65-1.254 2.069 2.069 0 0 1-1.377-1.191 2.069 2.069 0 0 1 .105-1.823 12.457 12.457 0 0 0 1.6-6.09c0-6.858-5.576-12.43-12.43-12.43-2.563 0-5.03.782-7.136 2.263a2.068 2.068 0 0 1-1.868.262 2.07 2.07 0 0 1-1.308-1.363A25.724 25.724 0 0 1 0 29.095C0 13.102 14.87.092 33.146.092c18.276 0 33.147 13.01 33.147 29.003 0 15.994-14.87 29.004-33.147 29.004" fill="#F7CB64"/><g fill-rule="nonzero"><g transform="translate(11.812 6.51)"><use fill="#742774" xlink:href="#b"/><use fill="#000" filter="url(#c)" xlink:href="#b"/></g><g transform="translate(11.812 6.51)"><use fill="#742774" xlink:href="#d"/><use fill="#000" filter="url(#e)" xlink:href="#d"/></g><path d="M39.801 19.995L38.5 18.694 27.463 7.658a1.89 1.89 0 0 0-2.668 0L13.759 18.694l-1.302 1.301a1.89 1.89 0 0 0 0 2.668l1.302 1.302L24.8 34.995a1.89 1.89 0 0 0 2.668 0l11.036-11.03 1.302-1.303a1.89 1.89 0 0 0 0-2.668M24.8 26.664l-2.98-2.98-1.022-1.022a1.89 1.89 0 0 1 0-2.668l4.002-4.001a1.89 1.89 0 0 1 2.667 0l4.002 4.001a1.89 1.89 0 0 1 0 2.668l-1.023 1.023-2.979 2.978a1.89 1.89 0 0 1-2.667 0" fill="#742774"/><g transform="translate(11.812 6.51)"><use fill="#742774" xlink:href="#f"/><use fill="#000" filter="url(#g)" xlink:href="#f"/></g></g></g><path d="M45.562 3.258L6.673 26.894C3.797 28.644 2 31.951 2 35.558v46.884c0 3.607 1.798 6.917 4.673 8.664l38.888 23.636A8.539 8.539 0 0 0 50 116a8.525 8.525 0 0 0 4.436-1.257l38.89-23.637C96.203 89.358 98 86.048 98 82.442V35.558c0-3.606-1.797-6.914-4.673-8.664L54.435 3.258A8.511 8.511 0 0 0 50 2c-1.546 0-3.07.428-4.438 1.258zm0 0s0 0 0 0h0z" stroke="#742774" stroke-width="4"/></g></svg>
